img/food.svg

<?xml version="1.0" encoding="UTF-8" standalone="no"?>
<svg width="120px" height="120px" viewBox="0 0 120 120" version="1.1" xmlns="http://www.w3.org/2000/svg" xmlns:xlink="http://www.w3.org/1999/xlink" xmlns:sketch="http://www.bohemiancoding.com/sketch/ns">
    <!-- Generator: Sketch 3.0.4 (8053) - http://www.bohemiancoding.com/sketch -->
    <title>food</title>
    <desc>Created with Sketch.</desc>
    <defs></defs>
    <g id="Icons" stroke="none" stroke-width="1" fill="none" fill-rule="evenodd" sketch:type="MSPage">
        <g id="food" sketch:type="MSArtboardGroup" stroke="#A25CC6" stroke-width="2" fill="#E3CDEE">
            <g id="Shape-+-Shape" sketch:type="MSLayerGroup" transform="translate(29.000000, 1.000000)">
                <path d="M29.0378777,38.5093758 C29.0163507,42.3176573 25.4775591,46.4145342 20.8911224,46.4145342 L20.8911224,110.958603 C20.8899264,120.150073 8.20576805,120.150073 8.18663298,110.958603 L8.18663298,46.4145342 C3.73533772,46.4145342 -0.151473023,43.0220657 -0.143101431,37.971057 L-0.143101431,2.40432295 C-0.151473023,-0.683058985 4.38593004,-0.802030971 4.41582859,2.52447287 L4.41582859,28.8078582 L8.18663298,28.8078582 L8.18663298,2.28299508 C8.18663298,-0.552307594 12.5542123,-0.736066305 12.5649758,2.40432295 L12.5649758,28.8078582 L16.4529825,28.8078582 L16.4529825,2.34307004 C16.4816851,-0.647720771 20.7260824,-0.766692757 20.7081433,2.46321997 L20.7081433,28.8078582 L24.6009337,28.8078582 L24.6009337,2.34307004 C24.5865824,-0.617094319 29.0199386,-0.737244246 29.0390736,2.46321997 L29.0390736,38.5093758 L29.0378777,38.5093758 L29.0378777,38.5093758 Z" id="Shape" sketch:type="MSShapeGroup"></path>
                <path d="M61.8351912,111.294189 C61.8519344,120.253605 49.1438572,120.120497 49.1318978,111.294189 C49.1318978,111.294189 49.1318985,75.546638 49.1318986,71.0342267 C49.1318987,64.6636345 42.3831992,62.9539488 42.3831992,51.4264671 L42.3831992,29.2607125 C42.3831992,7.83346943 48.6418457,0.0309211724 54.3232426,0.0314941371 C58.3144788,0.0318966502 61.8436669,3.43318126 61.835192,10.5599417 L61.8351912,111.294189 Z" id="Shape" sketch:type="MSShapeGroup"></path>
            </g>
        </g>
    </g>
</svg>

<svg viewBox="0 0 120 120" xmlns="http://www.w3.org/2000/svg"><g fill="#e3cdee" fill-rule="evenodd" transform="translate(29 1)" stroke="#a25cc6" stroke-width="2"><path d="m29.04 38.509c-.022 3.808-3.56 7.905-8.147 7.905v64.54c-.001 9.191-12.685 9.191-12.704 0v-64.54c-4.451 0-8.338-3.392-8.33-8.443v-35.567c-.008-3.087 4.529-3.206 4.559.12v26.28h3.771v-26.525c0-2.835 4.368-3.02 4.378.121v26.404h3.888v-26.465c.029-2.991 4.273-3.11 4.255.12v26.345h3.893v-26.465c-.014-2.96 4.419-3.08 4.438.12v36.05h-.001"/><path d="m61.835 111.29c.017 8.959-12.691 8.826-12.703 0 0 0 0-35.748 0-40.26 0-6.371-6.749-8.08-6.749-19.608v-22.17c0-21.427 6.259-29.23 11.94-29.23 3.991 0 7.52 3.402 7.512 10.528v100.73"/></g></svg>
